X:1
T:Title
%%score 1 2 3 4
L:1/8
M:4/4
K:Ab
V:1 treble nm="Church Organ, Church Organ"
V:2 treble nm="French Horn, French Horn"
V:3 bass nm="Trombone, Trombone"
V:4 bass nm="Tuba, Tuba"
V:1
 E2 E2 E2 E2 | E2 E2 E2 E2 | E2 E2 d2 c2 | B2 A6 | E2 E2 E2 E2 | E2 E2 E2 E2 | E2 F2 d2 F2 | %7
w: By~U.~C.~Burnap * * *|||||||
 G2 A6 | C2 c2 B2 A2 | G2 F2- F/ z/ =E F2 | G2 A2 A2 BA | B2 c6 | E2 E2 c2 B2 | A2 A2- A/ z/ G B2 | %14
w: |||||||
 E2 E2 d2 G2 | B2 A6 |] %16
w: ||
V:2
 C2 C2 C2 C2 | C2 D2 D2 D2 | E2 E2 F2 E2 | D2 C6 | C2 C2 C2 C2 | C2 D2 D2 D2 | D2 D2 F2 D2 | %7
w: O~ sing~ a~ song~|of~ Beth le hem,~|Of~ shep herds~ wat|ching~ there,~|And~ of~ the~ news~|that~ came~ to~ them~|From~ an gels~ in~|
 D2 C6 | C2 C2 C2 =D2 | =E2 F2- F/ z/ C C2 | C2 C2 C2 F2 | F2 =E6 | D2 C2 C2 C2 | %13
w: the~ air:~|The~ light~ that~ shone~|on~ Beth * le hem~|Fills~ all~ the~ world~|to day;~|Of~ Je sus�~ birth~|
 C2 D2- D/ z/ D D2 | D2 D2 F2 E2 | D2 C6 |] %16
w: and~ peace~ * on~ earth~|The~ an gels~ sing~|al way.~|
V:3
 E,2 E,2 C2 B,2 | A,2 B,2- B,/ z/ G, B,2 | G,2 G,2 G,2 F,2 | G,2 A,6 | E,2 E,2 C2 B,2 | %5
 A,2 A,2- A,/ z/ G, B,2 | G,2 G,2 G,2 A,2 | B,2 A,6 | C2 A,2 G,2[K:treble] C2 | %9
 C2 C2- C/ z/ B, A,2 | C2 C2[K:bass] A,2 A,2 | G,2 G,6 | G,2 A,2 E,2 E,2 | E,2 E,2- E,/ z/ E, E,2 | %14
 G,2 G,2 G,2 B,2 | G,2 A,6 |] %16
V:4
 A,,2 A,,2 A,,2 A,,2 | A,,2 B,,2 B,,2 B,,2 | E,2 E,2 E,2 E,2 | E,2 A,,6 | A,,2 A,,2 A,,2 A,,2 | %5
 A,,2 B,,2 B,,2 B,,2 | E,2 E,2 E,2 E,2 | E,2 A,,6 | C,2 C,2 C,2 C2 | B,2 A,2- A,/ z/ G, F,2 | %10
 =E,2 F,2 F,2 D,2 | D,2 C,6 | B,,2 A,,2 A,,2 A,,2 | A,,2 B,,2- B,,/ z/ B,, B,,2 | E,2 E,2 E,2 E,2 | %15
 E,2 A,,6 |] %16

